X:1
T:[ID 2-8b]
T:[ID 2-8b]
T:Bezeichnung standardisiert: Menuett Menuet 44
T:Urheber unbekannt Erstbeleg: 1767 (Datum in der schriftlichen Quelle) Datum in der hier transkribierten schriftlichen Quelle: 1775
C:Urheber unbekannt
C:Erstbeleg: 1767 (Datum in der schriftlichen Quelle)
C:Datum in der hier transkribierten schriftlichen Quelle: 1775
L:1/8
M:3/4
K:D
V:1 treble 
V:1
 F2 F2 F2 | F4 c2 | dfdFGE | F4 c2 | dfdFGE | F2 FAde | f2 e2 d2 | c6 :: de f2 f2 | g2 e4 | f2 d4 | %11
 e2 c4 | F2 F2 F2 | F4 c2 | dfdFGE | F6 :| %16

